X:4
T:Dance Tune
M:6/8
L:1/8
K:F
V:1 clef=treble
V:2 clef=bass
%%score 1 2
V:1
[C3F3A3][CA]GF | FEF GEC | CDE EDF | FEG FBA | [C3F3A3][CA]GF | FEG GEC | 
CDE EDF | FEG FBA | GFE F3 & D2CA,3 ||[F3A3C3]cAF | FEF GEC | CDE EDF | FEG FBA | 
[F3A3c3]cAF | FEF GEC | CDE EDF | FEG FBA | GFE F3 & D2CA,3 || [FAcf]3[Ff]/c/A/F/F | FEF GEC | 
CDE EDF | FEG FBA | [FAcf]3[Ff]/c/A/F/F | FEF GEC | CDE EDF | FEG FBA & B,3A,3 | GFE F3 & D2CA,3 ||
V:2
F,3F,,3 | [A,,F,]3[C,E,]3 | E,2G,F,2A, & C,3C,3 | G,2B,A,2z & C,3F,2z | F,3F,,3 | [A,,F,]3[C,E,]3|
E,2G,F,2A, & C,3C,3 |G,2E,F,3 & C,3D,3 | B,,2C,F,,3 || F,3[A,,3F,3] | [D,3B,3][C,3E,3] |[C,3E,3][C,3F,3]|[C,3G,3][F,2A,2]z | 
F,3[F,F,,]3 | [D,B,]3 [C,E,]3 | [C,E,]3 [C,F,]3 |G,2E,F,3 & C,3D,3 | B,,2C,F,,3 ||F,3[F,F,,]3 | [D,=B,]3[E,C]3 | 
[A,,A,]3[_B,,F,]3 | [C,B,]3 [F,A,]2z |F,3[F,A,,]3 | [=B,D,]3 [E,C]3 | [A,,A,]3 [_B,,F,]3 | G,,3 D,3 | B,,2C,F,,3 ||

